icons/appbaseio.svg

<?xml version="1.0" encoding="UTF-8"?>
<svg width="512px" height="105px" viewBox="0 0 512 105" version="1.1" xmlns="http://www.w3.org/2000/svg" xmlns:xlink="http://www.w3.org/1999/xlink" preserveAspectRatio="xMidYMid">
    <g fill="#232E44">
        <path d="M52.2621356,0 C81.1260477,0 104.528432,23.3857401 104.526352,52.2371686 C104.526352,81.0844361 81.1239671,104.474337 52.2621356,104.474337 C23.4003041,104.474337 0,81.0844361 0,52.2371686 C0,23.3857401 23.4003041,0 52.2621356,0 Z M52.2621356,2.90865343 C25.0023522,2.90865343 2.9128146,24.9940298 2.9128146,52.2371686 C2.9128146,79.4719851 25.0023522,101.563603 52.2621356,101.563603 C79.5115162,101.563603 101.613537,79.4719851 101.613537,52.2371686 C101.613537,24.9940298 79.5115162,2.90865343 52.2621356,2.90865343 Z M46.6362423,31.9847849 C50.6912963,31.9847849 53.9848574,35.2762654 53.9848574,39.3396417 C53.9848574,39.676696 53.9494875,40.0179114 53.9078759,40.3570462 L53.9078759,40.3570462 L70.4235346,44.8989564 C71.3244266,43.5569811 72.8557348,42.6748144 74.5846983,42.6748144 C77.3664363,42.6748144 79.6072229,44.9135205 79.6093035,47.682775 C79.6093035,50.4478682 77.3643557,52.6928161 74.5846983,52.6928161 C72.8952659,52.6928161 71.3930858,51.8439387 70.4901132,50.5539779 L70.4901132,50.5539779 L50.2023596,61.1774289 C50.772439,62.4694702 51.0928486,63.8863464 51.0928486,65.3822848 C51.0928486,71.1663024 46.3969754,75.8517727 40.6191996,75.8517727 C34.8331014,75.8517727 30.1497117,71.1663024 30.1497117,65.3822848 C30.1497117,59.6065896 34.8331014,54.9211192 40.6191996,54.9211192 C41.3910954,54.9211192 42.1317826,55.0043425 42.8516639,55.1603861 L42.8516639,55.1603861 L44.2685401,46.2846239 C41.368209,45.2984281 39.283466,42.5562213 39.283466,39.3396417 C39.283466,35.2762654 42.5749465,31.9847849 46.6362423,31.9847849 Z M53.4459867,42.0756069 C52.3682453,44.7720409 49.7279869,46.6778539 46.6362423,46.6778539 C46.4177812,46.6778539 46.2180453,46.6695316 46.0120677,46.6528869 L46.0120677,46.6528869 L44.5660633,55.6950957 C46.5301326,56.4940391 48.1904369,57.8693037 49.349321,59.6149119 L49.349321,59.6149119 L69.7431844,48.9352852 C69.6412359,48.5295718 69.5788184,48.1113748 69.5788184,47.6786138 C69.5788184,47.2853838 69.6329135,46.9087985 69.7078145,46.5467773 L69.7078145,46.5467773 Z"></path>
        <path d="M179.924558,35.5488216 C182.616831,32.4737216 188.294738,29.6004381 196.313301,30.9320104 C203.320701,32.0950557 206.745338,35.4739206 209.042301,40.7253092 C211.672156,46.731949 212.352506,58.4123356 208.407723,65.7068556 C205.299334,71.4555032 200.174861,74.9175914 192.395565,74.9175914 C183.682088,74.9175914 179.805964,71.5387265 179.805964,71.5387265 L179.805964,71.5387265 L179.805964,90.1557729 L175.28278,90.1557729 L175.28278,50.2522935 C175.28278,44.6908982 176.847377,39.0670855 179.924558,35.5488216 Z M225.911658,35.5488216 C228.603931,32.4737216 234.281839,29.6004381 242.300402,30.9320104 C249.309882,32.0950557 252.732439,35.4739206 255.029401,40.7253092 C257.659257,46.731949 258.337527,58.4123356 254.392743,65.7068556 C251.284354,71.4555032 246.159881,74.9175914 238.380585,74.9175914 C229.669189,74.9175914 225.793065,71.5387265 225.793065,71.5387265 L225.793065,71.5387265 L225.793065,90.1557729 L221.26988,90.1557729 L221.26988,50.2522935 C221.26988,44.6908982 222.832397,39.0670855 225.911658,35.5488216 Z M141.866554,30.8092561 C162.505926,28.0504046 163.246614,41.2412935 163.62736,44.0646431 C164.51993,50.7016992 164.896515,58.6599248 163.575345,63.7573504 C162.711904,67.1008454 161.178515,71.869539 154.43743,73.9958937 C145.21213,76.9045471 127.805982,75.2733709 130.290197,58.3832074 C132.300622,44.720068 158.651008,48.0835125 159.70422,48.2235155 L159.736672,48.2278874 C159.283105,38.7092254 155.716988,35.6923817 150.810976,34.924647 C141.764606,33.5119319 136.48617,38.0351169 136.48617,38.0351169 L136.48617,38.0351169 L134.172563,34.1589929 C134.172563,34.1589929 137.145714,31.4396724 141.866554,30.8092561 Z M325.063867,30.8092561 C345.703239,28.0504046 346.452249,41.2412935 346.822592,44.0646431 C347.717243,50.7016992 348.091747,58.6599248 346.772658,63.7573504 C345.911297,67.1008454 344.373747,71.869539 337.632662,73.9958937 C328.405282,76.9045471 311.001215,75.2733709 313.48751,58.3832074 C315.456905,44.9989076 340.781015,47.9533205 342.803793,48.2110884 L342.931904,48.2278874 C342.478337,38.7092254 338.914301,35.6923817 334.010369,34.924647 C324.961919,33.5119319 319.683483,38.0351169 319.683483,38.0351169 L319.683483,38.0351169 L317.371956,34.1589929 C317.371956,34.1589929 320.343027,31.4396724 325.063867,30.8092561 Z M272.535417,15.5190601 L272.535417,34.2172492 C272.535417,34.2172492 276.536376,30.8383843 285.249853,30.8383843 C293.029148,30.8383843 298.276376,34.2983919 301.391007,40.0470395 C305.33579,47.3394789 304.65544,59.0177849 302.025584,65.0306665 C299.728622,70.2758133 296.239486,73.6588394 289.230006,74.8260458 C281.211444,76.1555376 275.471118,73.2843347 272.776765,70.2050735 C269.699584,66.684729 268.010152,61.0629969 268.010152,55.5016016 L268.010152,55.5016016 L268.010152,15.5190601 L272.535417,15.5190601 Z M445.93527,66.784597 L445.93527,75.0777962 L442.922588,75.0777962 L442.922588,66.784597 L445.93527,66.784597 Z M461.013247,30.5970368 L461.013247,75.0777962 L458.000564,75.0777962 L458.000564,30.5970368 L461.013247,30.5970368 Z M382.10718,34.8643101 L379.373295,37.8312199 L379.341559,37.7992733 C378.878101,37.3396755 373.383029,32.1199322 365.778774,35.138947 C362.156481,36.5724678 360.641817,40.3445628 361.376262,43.1616706 C362.254268,46.5550996 365.626891,48.7875639 370.043966,49.9485286 C380.074452,52.5846258 382.747999,56.2922227 383.405463,61.0047406 C384.366692,67.9122723 378.928051,74.9966535 370.921972,75.0280726 C361.122431,75.0715545 355.46741,68.2930188 355.46741,68.2930188 L359.048091,65.2761751 C359.048091,65.2761751 371.494132,76.596621 378.586836,66.4080116 C380.596678,63.5180835 380.095257,57.7382271 372.994231,55.0979687 C364.854995,52.0728027 358.359419,50.5768643 356.975832,44.0459179 C354.485375,32.2739857 370.168801,25.5724316 382.10718,34.8643101 Z M412.485829,30.5712074 L412.887308,30.5720698 C423.566935,30.6906629 429.875259,37.0031483 430.52232,46.5613413 C430.670041,48.7542746 430.900986,53.2545732 430.52232,55.3559608 L430.52232,55.3559608 L397.630401,55.3247521 L397.630401,55.3247521 L397.630751,55.3690525 C397.64007,56.0606808 397.89486,64.6762646 404.793845,68.894307 C409.113132,71.5345653 418.367561,73.038826 426.908349,67.9642869 L426.908349,67.9642869 L428.901547,71.4180528 C428.901547,71.4180528 424.592661,75.0673933 414.957487,75.0220475 C396.723268,74.9259138 391.43859,62.5963857 393.829178,47.2812227 C395.08793,39.2397738 401.45243,30.4430737 412.887308,30.5720698 Z M492.022239,30.5928756 C503.053484,30.5928756 511.999986,40.4902035 511.999986,52.6948966 C511.999986,64.9016704 503.053484,74.7989983 492.022239,74.7989983 C480.986833,74.7989983 472.040331,64.9016704 472.040331,52.6948966 C472.040331,40.4881229 480.986833,30.5928756 492.022239,30.5928756 Z M492.022239,33.9904658 C482.595122,33.9904658 474.961468,42.4417893 474.961468,52.8696655 C474.961468,63.2954612 482.599284,71.7488653 492.022239,71.7488653 C501.447275,71.7488653 509.087171,63.2933806 509.085091,52.8696655 C509.085091,42.4417893 501.445194,33.9904658 492.022239,33.9904658 Z M286.362964,34.9704198 C276.199322,34.2817472 272.660252,39.2668214 272.660252,39.2668214 C272.537498,47.5600206 272.416824,55.7575131 272.949453,60.4970786 C273.180398,62.5360488 275.670854,72.073436 286.550217,71.3452324 C297.082122,70.6440763 299.724461,63.2913 299.97205,52.8010063 C300.25917,40.7606791 294.745628,35.5342575 286.362964,34.9704198 Z M159.757478,52.7073801 C159.757478,52.7073801 153.00599,50.6247177 142.765366,52.7073801 C132.718236,54.7484309 132.868038,63.734464 135.375139,66.8574173 C139.315761,71.7738323 148.580592,72.2918971 154.959656,69.416533 C160.852409,66.7606703 160.086172,55.8165939 159.820221,53.2485012 L159.790819,52.9785746 C159.770611,52.8024801 159.757478,52.7073801 159.757478,52.7073801 Z M342.954791,52.7073801 C342.954791,52.7073801 336.205383,50.6247177 325.960598,52.7073801 C315.917629,54.7484309 316.065351,63.734464 318.574532,66.8574173 C322.508913,71.7738323 331.779986,72.2918971 338.154888,69.416533 C344.84604,66.4017699 342.954791,52.7073801 342.954791,52.7073801 Z M193.569013,34.4086627 C182.691732,33.6804591 180.199194,43.2199269 179.96825,45.2568165 C179.479587,49.6222058 179.538085,56.9228508 179.65116,64.5267569 L179.670987,65.8327633 L179.670987,65.8327633 L179.68113,66.4870738 C179.68113,66.4870738 183.22228,71.4679867 193.383842,70.7834753 C201.766506,70.2217182 207.282128,64.9911354 206.992928,52.9528888 C206.741177,42.4605145 204.102999,35.1118994 193.569013,34.4086627 Z M239.560275,34.4086627 C228.685074,33.6804591 226.190456,43.2199269 225.961592,45.2568165 C225.469097,49.6222058 225.530823,56.9228508 225.642806,64.5267569 L225.662401,65.8327633 L225.662401,65.8327633 L225.672391,66.4870738 C225.672391,66.4870738 229.213542,71.4679867 239.373023,70.7834753 C247.753607,70.2217182 253.27131,64.9911354 252.980028,52.9528888 C252.728278,42.4605145 250.0901,35.1118994 239.560275,34.4086627 Z M412.806165,34.3649705 C399.862866,34.2422162 397.680335,49.4450278 397.678255,51.7045397 L397.678255,51.7045397 L426.935397,51.7045397 C426.935397,51.7045397 428.381401,34.5147724 412.806165,34.3649705 Z M461.013247,14.7658894 L461.013247,23.0590887 L458.000564,23.0590887 L458.000564,14.7658894 L461.013247,14.7658894 Z"></path>
    </g>
</svg>

<svg xmlns="http://www.w3.org/2000/svg" viewBox="0 0 512 104.474">
  <g fill="#232e44">
    <path d="M52.262 0c28.864 0 52.266 23.386 52.264 52.237 0 28.847-23.402 52.237-52.264 52.237C23.4 104.474 0 81.084 0 52.237 0 23.386 23.4 0 52.262 0zm0 2.909c-27.26 0-49.35 22.085-49.35 49.328 0 27.235 22.09 49.327 49.35 49.327 27.25 0 49.352-22.092 49.352-49.327 0-27.243-22.102-49.328-49.352-49.328zm-5.626 29.076a7.353 7.353 0 0 1 7.349 7.355c0 .337-.036.678-.077 1.017l16.516 4.542a5.009 5.009 0 0 1 4.16-2.224 5.011 5.011 0 0 1 5.025 5.008 5.016 5.016 0 0 1-5.024 5.01 5 5 0 0 1-4.095-2.139L50.202 61.177c.57 1.292.89 2.71.89 4.205 0 5.784-4.695 10.47-10.473 10.47a10.466 10.466 0 0 1-10.47-10.47c0-5.775 4.684-10.46 10.47-10.46.772 0 1.513.082 2.233.238l1.417-8.875c-2.9-.987-4.986-3.729-4.986-6.945a7.353 7.353 0 0 1 7.353-7.355zm6.81 10.09a7.327 7.327 0 0 1-7.434 4.578l-1.446 9.042a10.492 10.492 0 0 1 4.783 3.92l20.394-10.68a5.138 5.138 0 0 1-.164-1.256c0-.394.054-.77.129-1.132zM179.925 35.549c2.692-3.075 8.37-5.949 16.388-4.617 7.008 1.163 10.432 4.542 12.73 9.793 2.63 6.007 3.31 17.687-.635 24.982-3.109 5.749-8.233 9.21-16.012 9.21-8.714 0-12.59-3.378-12.59-3.378v18.617h-4.523V50.252c0-5.561 1.564-11.185 4.642-14.703zm45.987 0c2.692-3.075 8.37-5.949 16.388-4.617 7.01 1.163 10.432 4.542 12.73 9.793 2.63 6.007 3.308 17.687-.637 24.982-3.109 5.749-8.233 9.21-16.012 9.21-8.712 0-12.588-3.378-12.588-3.378v18.617h-4.523V50.252c0-5.561 1.562-11.185 4.642-14.703zm-84.045-4.74c20.639-2.759 21.38 10.432 21.76 13.256.893 6.637 1.27 14.595-.052 19.692-.863 3.344-2.396 8.113-9.138 10.239-9.225 2.909-26.631 1.277-24.147-15.613 2.01-13.663 28.361-10.3 29.414-10.16l.033.005c-.454-9.519-4.02-12.536-8.926-13.303-9.046-1.413-14.325 3.11-14.325 3.11l-2.313-3.876s2.973-2.72 7.694-3.35zm183.197 0c20.64-2.759 21.388 10.432 21.759 13.256.894 6.637 1.269 14.595-.05 19.692-.862 3.344-2.4 8.113-9.14 10.239-9.228 2.909-26.632 1.277-24.145-15.613 1.969-13.384 27.293-10.43 29.316-10.172l.128.017c-.454-9.519-4.018-12.536-8.922-13.303-9.048-1.413-14.326 3.11-14.326 3.11l-2.312-3.876s2.971-2.72 7.692-3.35zm-52.529-15.29v18.698s4.001-3.379 12.715-3.379c7.78 0 13.026 3.46 16.141 9.209 3.945 7.292 3.264 18.97.635 24.984-2.297 5.245-5.787 8.628-12.796 9.795-8.019 1.33-13.759-1.542-16.453-4.62-3.077-3.521-4.767-9.143-4.767-14.704V15.519zm173.4 51.266v8.293h-3.012v-8.293zm15.078-36.188v44.48h-3.012v-44.48zm-78.906 4.267-2.734 2.967-.031-.032c-.464-.46-5.959-5.68-13.563-2.66-3.622 1.433-5.137 5.206-4.403 8.023.878 3.393 4.25 5.626 8.668 6.787 10.03 2.636 12.704 6.343 13.361 11.056.962 6.907-4.477 13.992-12.483 14.023-9.8.044-15.455-6.735-15.455-6.735l3.581-3.017s12.446 11.32 19.539 1.132c2.01-2.89 1.508-8.67-5.593-11.31-8.139-3.025-14.635-4.521-16.018-11.052-2.49-11.772 13.193-18.474 25.131-9.182zm30.379-4.293.401.001c10.68.119 16.988 6.431 17.635 15.99.148 2.192.379 6.693 0 8.794l-32.892-.031v.044c.01.692.265 9.307 7.164 13.525 4.32 2.64 13.574 4.145 22.114-.93l1.994 3.454s-4.31 3.65-13.945 3.604c-18.234-.096-23.518-12.426-21.128-27.74 1.259-8.042 7.623-16.839 19.058-16.71zm79.536.022c11.031 0 19.978 9.897 19.978 22.102 0 12.207-8.947 22.104-19.978 22.104-11.035 0-19.982-9.897-19.982-22.104 0-12.207 8.947-22.102 19.982-22.102zm0 3.397c-9.427 0-17.06 8.452-17.06 18.88 0 10.425 7.637 18.879 17.06 18.879 9.425 0 17.065-8.456 17.063-18.88 0-10.427-7.64-18.879-17.063-18.879zm-205.659.98c-10.164-.688-13.703 4.297-13.703 4.297-.123 8.293-.243 16.49.29 21.23.23 2.039 2.72 11.576 13.6 10.848 10.532-.7 13.174-8.054 13.422-18.544.287-12.04-5.226-17.267-13.609-17.83zM159.757 52.707s-6.751-2.082-16.992 0c-10.047 2.041-9.897 11.027-7.39 14.15 3.94 4.917 13.206 5.435 19.585 2.56 5.892-2.656 5.126-13.6 4.86-16.168l-.03-.27-.032-.272zm183.198 0s-6.75-2.082-16.994 0c-10.043 2.041-9.896 11.027-7.386 14.15 3.934 4.917 13.205 5.435 19.58 2.56 6.691-3.015 4.8-16.71 4.8-16.71zM193.569 34.41c-10.877-.729-13.37 8.81-13.6 10.848-.49 4.365-.43 11.666-.318 19.27l.02 1.306.01.654s3.541 4.981 13.703 4.296c8.382-.561 13.898-5.792 13.609-17.83-.252-10.492-2.89-17.841-13.424-18.544zm45.991 0c-10.875-.729-13.37 8.81-13.598 10.848-.493 4.365-.431 11.666-.32 19.27l.02 1.306.01.654s3.542 4.981 13.701 4.296c8.38-.561 13.898-5.792 13.607-17.83-.252-10.492-2.89-17.841-13.42-18.544zm173.246-.044c-12.943-.123-15.126 15.08-15.128 17.34h29.257s1.446-17.19-14.129-17.34zm48.207-19.6v8.294h-3.012v-8.293z"/>
  </g>
</svg>
